X:1
T:Allemande Du Mignon. TWC.249
T:Allemande Du Mignon. TWC.249
T:French
C:French
L:1/8
Q:1/4=100
M:2/4
K:D
V:1 treble 
V:1
 faa^g | a/^g/a/b/ ae | fa ^g/a/b/g/ | a2 a2 :| fa a/g/f/e/ | d/c/d/e/ dA | fa a/g/f/e/ | d2 d2 | %8
 fa a/g/f/e/ | d/c/d/e/ f/g/a/f/ | agec | d2 d2 || %12

